public/assets/icons/shopping-cart.svg

<svg width="32" height="31" viewBox="0 0 32 31" fill="none" xmlns="http://www.w3.org/2000/svg">
<g filter="url(#filter0_dd_2883_972)">
<path d="M13 22C13.5523 22 14 21.5523 14 21C14 20.4477 13.5523 20 13 20C12.4477 20 12 20.4477 12 21C12 21.5523 12.4477 22 13 22Z" stroke="white" stroke-width="2" stroke-linecap="round" stroke-linejoin="round"/>
<path d="M24 22C24.5523 22 25 21.5523 25 21C25 20.4477 24.5523 20 24 20C23.4477 20 23 20.4477 23 21C23 21.5523 23.4477 22 24 22Z" stroke="white" stroke-width="2" stroke-linecap="round" stroke-linejoin="round"/>
<path d="M5 1H9L11.68 14.39C11.7714 14.8504 12.0219 15.264 12.3875 15.5583C12.7532 15.8526 13.2107 16.009 13.68 16H23.4C23.8693 16.009 24.3268 15.8526 24.6925 15.5583C25.0581 15.264 25.3086 14.8504 25.4 14.39L26.2 10.195L27 6H10M9 1L10.0007 6M10.0007 6L11.68 14.39L12.3875 15.5583M10.0007 6H27L26.2 10.195M10.0007 6H10M13.68 16H23.4C23.8693 16.009 24.3268 15.8526 24.6925 15.5583" stroke="white" stroke-linecap="round" stroke-linejoin="round"/>
<path d="M12.3875 15.5583C12.0219 15.264 11.7714 14.8504 11.68 14.39L10 6H27L26.2 10.195L25.4 14.39C25.3086 14.8504 25.0581 15.264 24.6925 15.5583C24.3268 15.8526 23.8693 16.009 23.4 16H13.68C13.2107 16.009 12.7532 15.8526 12.3875 15.5583Z" fill="white"/>
<path d="M11.68 14.39C11.7714 14.8504 12.0219 15.264 12.3875 15.5583M11.68 14.39L10 6H27L26.2 10.195L25.4 14.39C25.3086 14.8504 25.0581 15.264 24.6925 15.5583C24.3268 15.8526 23.8693 16.009 23.4 16H13.68C13.2107 16.009 12.7532 15.8526 12.3875 15.5583M11.68 14.39L12.3875 15.5583" stroke="white" stroke-linecap="round" stroke-linejoin="round"/>
</g>
<defs>
<filter id="filter0_dd_2883_972" x="0" y="0" width="32" height="32" filterUnits="userSpaceOnUse" color-interpolation-filters="sRGB">
<feFlood flood-opacity="0" result="BackgroundImageFix"/>
<feColorMatrix in="SourceAlpha" type="matrix" values="0 0 0 0 0 0 0 0 0 0 0 0 0 0 0 0 0 0 127 0" result="hardAlpha"/>
<feOffset dy="4"/>
<feGaussianBlur stdDeviation="2"/>
<feComposite in2="hardAlpha" operator="out"/>
<feColorMatrix type="matrix" values="0 0 0 0 0 0 0 0 0 0 0 0 0 0 0 0 0 0 0.25 0"/>
<feBlend mode="normal" in2="BackgroundImageFix" result="effect1_dropShadow_2883_972"/>
<feColorMatrix in="SourceAlpha" type="matrix" values="0 0 0 0 0 0 0 0 0 0 0 0 0 0 0 0 0 0 127 0" result="hardAlpha"/>
<feOffset dy="4"/>
<feGaussianBlur stdDeviation="2"/>
<feComposite in2="hardAlpha" operator="out"/>
<feColorMatrix type="matrix" values="0 0 0 0 0 0 0 0 0 0 0 0 0 0 0 0 0 0 0.25 0"/>
<feBlend mode="normal" in2="effect1_dropShadow_2883_972" result="effect2_dropShadow_2883_972"/>
<feBlend mode="normal" in="SourceGraphic" in2="effect2_dropShadow_2883_972" result="shape"/>
</filter>
</defs>
</svg>

<svg xmlns="http://www.w3.org/2000/svg" width="32" height="31" fill="none"><g filter="url(#a)"><path stroke="#fff" stroke-linecap="round" stroke-linejoin="round" stroke-width="2" d="M13 22a1 1 0 1 0 0-2 1 1 0 0 0 0 2ZM24 22a1 1 0 1 0 0-2 1 1 0 0 0 0 2Z"/><path stroke="#fff" stroke-linecap="round" stroke-linejoin="round" d="M5 1h4l2.68 13.39a2 2 0 0 0 2 1.61h9.72a2 2 0 0 0 2-1.61l.8-4.195L27 6H10M9 1l1 5m0 0 1.68 8.39.707 1.168M10.002 6H27l-.8 4.195M10 6h0m3.68 10h9.72a2 2 0 0 0 1.293-.442"/><path fill="#fff" d="M12.387 15.558a2 2 0 0 1-.707-1.168L10 6h17l-.8 4.195-.8 4.195a2 2 0 0 1-2 1.61h-9.72a2 2 0 0 1-1.293-.442Z"/><path stroke="#fff" stroke-linecap="round" stroke-linejoin="round" d="M11.68 14.39a2 2 0 0 0 .707 1.168m-.707-1.168L10 6h17l-.8 4.195-.8 4.195a2 2 0 0 1-2 1.61h-9.72a2 2 0 0 1-1.293-.442m-.707-1.168.707 1.168"/></g><defs><filter id="a" width="32" height="32" x="0" y="0" color-interpolation-filters="sRGB" filterUnits="userSpaceOnUse"><feFlood flood-opacity="0" result="BackgroundImageFix"/><feColorMatrix in="SourceAlpha" result="hardAlpha" values="0 0 0 0 0 0 0 0 0 0 0 0 0 0 0 0 0 0 127 0"/><feOffset dy="4"/><feGaussianBlur stdDeviation="2"/><feComposite in2="hardAlpha" operator="out"/><feColorMatrix values="0 0 0 0 0 0 0 0 0 0 0 0 0 0 0 0 0 0 0.25 0"/><feBlend in2="BackgroundImageFix" result="effect1_dropShadow_2883_972"/><feColorMatrix in="SourceAlpha" result="hardAlpha" values="0 0 0 0 0 0 0 0 0 0 0 0 0 0 0 0 0 0 127 0"/><feOffset dy="4"/><feGaussianBlur stdDeviation="2"/><feComposite in2="hardAlpha" operator="out"/><feColorMatrix values="0 0 0 0 0 0 0 0 0 0 0 0 0 0 0 0 0 0 0.25 0"/><feBlend in2="effect1_dropShadow_2883_972" result="effect2_dropShadow_2883_972"/><feBlend in="SourceGraphic" in2="effect2_dropShadow_2883_972" result="shape"/></filter></defs></svg>
